X: 1
T: Lilliburlero
C: Trad
R: Jig
L:1/8
M: 6/8
K: G
Z: ABC transcription by Verge Roller
r: 16
|: "G" GAG B2 B | "D" ABA "C" c3 | "G" BdG "C" c2 B | "D" AGF "G" G3 :|
"G" g2 f g2 d | de=f "C" e2 d | "G" def  gde | "G" dcB "D" A2 d |
 "C" edc "G" Bcd | "C" edc "G" Bcd | "C" egG "Am" c2 B | "D" AGF "G" G3 |]
